X: 1463
T: a Moonlight Ramble
R: hornpipe
%S: s:2 b:9(4+5)
B: O'Neill's 1850 #1463
O: McNamara
Z: Bob Safranek, rjs@gsp.org
N: Compacted via repeats and multiple endings [JC]
M: C|
L: 1/8
K: C
%%slurgraces 1
%%graceslurs 1
"^A"|: (gf) !segno!|\
e>c ((3{d}cBc) G>E ((3{F}EDE) | Dd{e}d^c ~d3f |\
ec ((3{d}cBc) GFED | CcBd Hc2 :|
(cf) "^B"|::\
ecgc acgc |[1,3 Ad{e}d^c ~d3f :|[2 GcBd ~c3f :|\
((3efg) ag fedc | GcBd ceg!segno!f |]
